X:135
T:Fairy Dance, The
C:Nathaniel Gow
S:Peter Hardie's MSS, via Scottish Country Dance Book 3
Z:Nigel Gatherer
M:4/4
L:1/8
K:D
f2 fd f2 fd|f2 fd cAec|f2 fd gfed|1cABc d2 de:|2cABc defg|]
a2 af b2 ba|gfge a2 ag|fefd B2 ge|cABc defg|
a2 af b2 ba|gfge a2 ag|fefd B2 ge|cABc d2 z2|]
<end>
<start>
